packages/foundations/assets/icons/functional/images/maps/navigation_u_turn_14.svg

<svg width="14" height="14" viewBox="0 0 14 14" fill="none" xmlns="http://www.w3.org/2000/svg">
<g clip-path="url(#clip0_2213_5439)">
<path fill-rule="evenodd" clip-rule="evenodd" d="M5.90515 1.2384C7.68945 1.2384 9.13592 2.68487 9.13592 4.46917V10.3391L10.0881 9.38612C10.2433 9.2432 10.4179 9.17174 10.6117 9.17174C10.9925 9.17174 11.3257 9.48139 11.3257 9.88631C11.3257 10.0769 11.2543 10.2674 11.1115 10.3864L8.95367 12.5471C8.83465 12.69 8.64426 12.7615 8.45387 12.7615C8.28729 12.7615 8.09689 12.69 7.95406 12.5471L5.79621 10.3864C5.67727 10.2674 5.58207 10.0769 5.58207 9.88631C5.58207 9.48139 5.91522 9.17174 6.29601 9.17174C6.48641 9.17174 6.6768 9.24317 6.81963 9.38612L7.70002 10.268V4.46917C7.70002 3.47789 6.89643 2.6743 5.90515 2.6743C4.91387 2.6743 4.11028 3.47789 4.11028 4.46917V7.52045C4.11028 7.91697 3.78884 8.2384 3.39233 8.2384C2.99581 8.2384 2.67438 7.91697 2.67438 7.52045V4.46917C2.67438 2.68487 4.12084 1.2384 5.90515 1.2384Z" fill="#1A1C1F"/>
</g>
<defs>
<clipPath id="clip0_2213_5439">
<rect width="14" height="14" fill="white"/>
</clipPath>
</defs>
</svg>

<svg xmlns="http://www.w3.org/2000/svg" width="14" height="14" fill="none"><g clip-path="url(#a)"><path fill="#1A1C1F" fill-rule="evenodd" d="M5.905 1.238a3.23 3.23 0 0 1 3.23 3.231v5.87l.953-.953a.75.75 0 0 1 .524-.214c.38 0 .714.31.714.714 0 .19-.072.381-.215.5l-2.157 2.161a.65.65 0 0 1-.5.214.73.73 0 0 1-.5-.214l-2.158-2.16a.74.74 0 0 1-.214-.5c0-.406.333-.715.714-.715.19 0 .38.071.524.214l.88.882V4.469a1.795 1.795 0 1 0-3.59 0V7.52a.718.718 0 1 1-1.436 0V4.47a3.23 3.23 0 0 1 3.231-3.232" clip-rule="evenodd"/></g><defs><clipPath id="a"><path fill="#fff" d="M0 0h14v14H0z"/></clipPath></defs></svg>
